public/images/doc-guide.svg

<svg width="120" height="92" viewBox="0 0 120 92" fill="none" xmlns="http://www.w3.org/2000/svg">
<g id="doc-guide">
<g id="Group">
<g id="Group_2">
<path id="Vector" d="M101.93 25.04H67.5699C65.0018 25.04 62.9199 27.1219 62.9199 29.69V79.48C62.9199 82.0481 65.0018 84.13 67.5699 84.13H101.93C104.498 84.13 106.58 82.0481 106.58 79.48V29.69C106.58 27.1219 104.498 25.04 101.93 25.04Z" fill="white"/>
<path id="Vector_2" d="M101.93 85.13H67.5699C64.4599 85.13 61.9199 82.6 61.9199 79.48V29.69C61.9199 26.58 64.4499 24.04 67.5699 24.04H101.93C105.04 24.04 107.58 26.57 107.58 29.69V79.48C107.58 82.59 105.05 85.13 101.93 85.13ZM67.5699 26.04C65.5599 26.04 63.9199 27.68 63.9199 29.69V79.48C63.9199 81.49 65.5599 83.13 67.5699 83.13H101.93C103.94 83.13 105.58 81.49 105.58 79.48V29.69C105.58 27.68 103.94 26.04 101.93 26.04H67.5699Z" fill="#13706D"/>
</g>
<g id="Group_3">
<path id="Vector_3" d="M97.8801 25.04H63.5201C60.952 25.04 58.8701 27.1219 58.8701 29.69V79.48C58.8701 82.0481 60.952 84.13 63.5201 84.13H97.8801C100.448 84.13 102.53 82.0481 102.53 79.48V29.69C102.53 27.1219 100.448 25.04 97.8801 25.04Z" fill="white"/>
<path id="Vector_4" d="M97.8801 85.13H63.5201C60.4101 85.13 57.8701 82.6 57.8701 79.48V29.69C57.8701 26.58 60.4001 24.04 63.5201 24.04H97.8801C100.99 24.04 103.53 26.57 103.53 29.69V79.48C103.53 82.59 101 85.13 97.8801 85.13ZM63.5201 26.04C61.5101 26.04 59.8701 27.68 59.8701 29.69V79.48C59.8701 81.49 61.5101 83.13 63.5201 83.13H97.8801C99.8901 83.13 101.53 81.49 101.53 79.48V29.69C101.53 27.68 99.8901 26.04 97.8801 26.04H63.5201Z" fill="#13706D"/>
</g>
<g id="Group_4">
<path id="Vector_5" d="M93.6204 25.04H59.2603C56.6922 25.04 54.6104 27.1219 54.6104 29.69V79.48C54.6104 82.0481 56.6922 84.13 59.2603 84.13H93.6204C96.1885 84.13 98.2703 82.0481 98.2703 79.48V29.69C98.2703 27.1219 96.1885 25.04 93.6204 25.04Z" fill="#AFE0DD"/>
<path id="Vector_6" d="M93.6301 85.13H59.2701C56.1601 85.13 53.6201 82.6 53.6201 79.48V29.69C53.6201 26.58 56.1501 24.04 59.2701 24.04H93.6301C96.7401 24.04 99.2801 26.57 99.2801 29.69V79.48C99.2801 82.59 96.7501 85.13 93.6301 85.13ZM59.2601 26.04C57.2501 26.04 55.6101 27.68 55.6101 29.69V79.48C55.6101 81.49 57.2501 83.13 59.2601 83.13H93.6201C95.6301 83.13 97.2701 81.49 97.2701 79.48V29.69C97.2701 27.68 95.6301 26.04 93.6201 26.04H59.2601Z" fill="#13706D"/>
</g>
</g>
<g id="Group_5">
<path id="Vector_7" d="M58.7592 10.07C59.5692 12.25 62.2792 12.98 64.0692 11.49C66.4692 9.49 70.0592 11.57 69.5392 14.65C69.1492 16.94 71.1392 18.93 73.4192 18.53C76.4992 18 78.5692 21.59 76.5792 24C75.0992 25.79 75.8192 28.5 77.9992 29.31C80.9292 30.39 80.9292 34.54 77.9992 35.62C75.8192 36.43 75.0892 39.14 76.5792 40.93C78.5792 43.33 76.4992 46.92 73.4192 46.4C71.1292 46.01 69.1392 48 69.5392 50.28C70.0692 53.36 66.4792 55.43 64.0692 53.44C62.2792 51.96 59.5692 52.68 58.7592 54.86C57.6792 57.79 53.5292 57.79 52.4492 54.86C51.6392 52.68 48.9292 51.95 47.1392 53.44C44.7392 55.44 41.1492 53.36 41.6692 50.28C42.0592 47.99 40.0692 46 37.7892 46.4C34.7092 46.93 32.6392 43.34 34.6292 40.93C36.1092 39.14 35.3892 36.43 33.2092 35.62C30.2792 34.54 30.2792 30.39 33.2092 29.31C35.3892 28.5 36.1192 25.79 34.6292 24C32.6292 21.6 34.7092 18.01 37.7892 18.53C40.0792 18.92 42.0692 16.93 41.6692 14.65C41.1392 11.57 44.7292 9.5 47.1392 11.49C48.9292 12.97 51.6392 12.25 52.4492 10.07C53.5292 7.14 57.6792 7.14 58.7592 10.07Z" fill="white"/>
<path id="Vector_8" d="M55.5995 58.06C53.7495 58.06 52.1495 56.94 51.5095 55.21C51.2395 54.48 50.6495 53.95 49.8995 53.75C49.1495 53.55 48.3795 53.72 47.7795 54.21C46.3595 55.39 44.4095 55.55 42.8095 54.63C41.2095 53.71 40.3795 51.93 40.6895 50.11C40.8195 49.34 40.5795 48.59 40.0295 48.04C39.4795 47.49 38.7195 47.25 37.9595 47.38C36.1395 47.7 34.3695 46.86 33.4395 45.26C32.5195 43.66 32.6795 41.71 33.8595 40.29C34.3595 39.69 34.5295 38.92 34.3295 38.17C34.1295 37.42 33.5895 36.83 32.8695 36.56C31.1395 35.92 30.0195 34.31 30.0195 32.46C30.0195 30.61 31.1395 29.01 32.8695 28.37C33.5995 28.1 34.1295 27.51 34.3295 26.76C34.5295 26.01 34.3595 25.23 33.8595 24.64C32.6795 23.22 32.5095 21.27 33.4395 19.67C34.3595 18.07 36.1395 17.24 37.9595 17.55C38.7195 17.68 39.4795 17.44 40.0295 16.89C40.5795 16.34 40.8195 15.59 40.6895 14.82C40.3795 13 41.2095 11.23 42.8095 10.3C44.4095 9.38 46.3595 9.54 47.7795 10.72C48.3795 11.22 49.1495 11.39 49.8995 11.18C50.6495 10.98 51.2395 10.45 51.5095 9.72C52.1495 7.99 53.7595 6.87 55.5995 6.87C57.4495 6.87 59.0495 7.99 59.6895 9.72C59.9595 10.45 60.5495 10.98 61.2995 11.18C62.0495 11.38 62.8195 11.21 63.4195 10.71C64.8395 9.53 66.7895 9.36 68.3895 10.29C69.9895 11.21 70.8195 12.99 70.5095 14.81C70.3795 15.58 70.6195 16.33 71.1695 16.88C71.7195 17.43 72.4795 17.67 73.2395 17.54C75.0595 17.23 76.8295 18.06 77.7595 19.66C78.6895 21.26 78.5195 23.21 77.3395 24.63C76.8395 25.23 76.6695 26 76.8695 26.75C77.0695 27.5 77.6095 28.09 78.3295 28.36C80.0595 29 81.1795 30.61 81.1795 32.45C81.1795 34.29 80.0595 35.9 78.3295 36.54C77.5995 36.81 77.0695 37.4 76.8695 38.15C76.6695 38.9 76.8395 39.68 77.3395 40.27C78.5195 41.69 78.6895 43.64 77.7595 45.24C76.8395 46.84 75.0595 47.67 73.2395 47.36C72.4795 47.23 71.7195 47.47 71.1695 48.02C70.6195 48.57 70.3795 49.32 70.5095 50.09C70.8195 51.91 69.9895 53.68 68.3895 54.61C66.7895 55.53 64.8395 55.37 63.4195 54.19C62.8195 53.69 62.0495 53.52 61.2995 53.73C60.5495 53.93 59.9595 54.47 59.6895 55.19C59.0495 56.92 57.4395 58.04 55.5995 58.04V58.06ZM49.2695 51.65C49.6495 51.65 50.0395 51.7 50.4195 51.8C51.8095 52.17 52.8895 53.16 53.3795 54.5C53.7995 55.64 54.7995 56.05 55.5995 56.05C56.3995 56.05 57.3995 55.64 57.8195 54.5C58.3195 53.15 59.3995 52.17 60.7895 51.8C62.1795 51.43 63.5995 51.74 64.7095 52.66C65.6395 53.44 66.7095 53.29 67.3995 52.89C68.0895 52.49 68.7495 51.64 68.5495 50.44C68.3095 49.03 68.7495 47.63 69.7695 46.62C70.7795 45.6 72.1795 45.16 73.5895 45.4C74.7795 45.6 75.6395 44.94 76.0395 44.25C76.4395 43.56 76.5895 42.49 75.8095 41.56C74.8895 40.46 74.5795 39.03 74.9495 37.64C75.3195 36.25 76.3095 35.17 77.6495 34.68C78.7895 34.26 79.1895 33.26 79.1895 32.46C79.1895 31.66 78.7795 30.66 77.6495 30.24C76.2995 29.74 75.3195 28.66 74.9495 27.28C74.5795 25.89 74.8895 24.47 75.8095 23.36C76.5895 22.43 76.4395 21.36 76.0395 20.67C75.6395 19.98 74.7795 19.32 73.5895 19.52C72.1695 19.77 70.7795 19.32 69.7695 18.3C68.7595 17.28 68.3095 15.89 68.5495 14.48C68.7495 13.28 68.0895 12.43 67.3995 12.03C66.7095 11.63 65.6395 11.48 64.7095 12.26C63.6095 13.18 62.1795 13.49 60.7895 13.12C59.4195 12.75 58.3095 11.74 57.8195 10.42C57.3995 9.28 56.3995 8.88 55.5995 8.87C54.7995 8.87 53.7995 9.28 53.3795 10.42C52.8795 11.77 51.7995 12.75 50.4195 13.12C49.0295 13.49 47.5995 13.18 46.4995 12.26C45.5695 11.48 44.4995 11.63 43.8095 12.03C43.1195 12.43 42.4595 13.28 42.6595 14.48C42.8995 15.89 42.4595 17.29 41.4395 18.3C40.4295 19.31 39.0295 19.76 37.6195 19.52C36.4295 19.32 35.5695 19.98 35.1695 20.67C34.7695 21.36 34.6195 22.43 35.3995 23.36C36.3195 24.46 36.6295 25.89 36.2595 27.28C35.8895 28.67 34.8995 29.75 33.5595 30.24C32.4195 30.66 32.0195 31.66 32.0195 32.46C32.0195 33.26 32.4295 34.26 33.5595 34.68C34.9095 35.18 35.8895 36.26 36.2595 37.64C36.6295 39.03 36.3195 40.45 35.3995 41.56C34.6195 42.49 34.7695 43.56 35.1695 44.25C35.5695 44.94 36.4295 45.6 37.6195 45.4C39.0395 45.15 40.4295 45.6 41.4395 46.62C42.4495 47.63 42.8995 49.03 42.6595 50.44C42.4595 51.64 43.1195 52.49 43.8095 52.89C44.4995 53.29 45.5695 53.44 46.4995 52.66C47.2995 52 48.2695 51.65 49.2695 51.65Z" fill="#13706D"/>
</g>
<path id="Vector_9" d="M61.2302 28.24H57.3102L56.9202 24.36C56.7902 23.03 55.6802 22.03 54.3502 22.03C53.0202 22.03 51.9302 23.12 51.9302 24.45V24.76C51.9302 25.84 51.6702 26.93 51.1902 27.9L50.2302 29.82C49.8902 29.6 49.4902 29.48 49.0802 29.48H46.6002C45.4302 29.48 44.4902 30.43 44.4902 31.59V40.28C44.4902 41.45 45.4402 42.39 46.6002 42.39H49.0802C49.7102 42.39 50.2902 42.11 50.6902 41.64C51.2902 42.12 52.0302 42.39 52.8002 42.39H60.4902C62.2202 42.39 63.6602 41.09 63.8302 39.37L64.5802 31.92C64.5902 31.81 64.6002 31.7 64.6002 31.59C64.6002 29.74 63.1002 28.23 61.2502 28.23L61.2302 28.24ZM53.6702 24.76V24.45C53.6702 24.07 53.9802 23.77 54.3502 23.77C54.7902 23.77 55.1502 24.1 55.1902 24.53L55.6602 29.19C55.7002 29.64 56.0802 29.98 56.5302 29.98H61.2402C62.1302 29.98 62.8502 30.7 62.8502 31.59C62.8502 31.64 62.8502 31.7 62.8502 31.75L62.1002 39.2C62.0202 40.03 61.3302 40.65 60.5002 40.65H52.8102C51.9202 40.65 51.2002 39.93 51.2002 39.04V31.79L52.7602 28.67C53.3702 27.46 53.6902 26.1 53.6902 24.75L53.6702 24.76ZM46.2202 31.59C46.2202 31.38 46.3902 31.22 46.5902 31.22H49.0702C49.2702 31.22 49.4402 31.39 49.4402 31.59V40.28C49.4402 40.49 49.2702 40.65 49.0702 40.65H46.5902C46.3902 40.65 46.2202 40.48 46.2202 40.28V31.59Z" fill="#13706D"/>
<path id="Vector_10" d="M49.0797 31.22H46.5897C46.3854 31.22 46.2197 31.3857 46.2197 31.59V40.28C46.2197 40.4843 46.3854 40.65 46.5897 40.65H49.0797C49.2841 40.65 49.4497 40.4843 49.4497 40.28V31.59C49.4497 31.3857 49.2841 31.22 49.0797 31.22Z" fill="#AFE0DD"/>
<path id="Vector_11" d="M27.7295 84.13H23.5495C21.1795 84.13 19.2695 82.21 19.2695 79.85V73.31C19.2695 72.59 19.8495 72 20.5795 72H30.7195C31.4395 72 32.0295 72.58 32.0295 73.31V79.85C32.0295 82.22 30.1095 84.13 27.7495 84.13H27.7295Z" fill="#AFE0DD"/>
<path id="Vector_12" d="M23.4498 63.31C21.9298 60.47 18.4598 57.83 14.2998 57.35C14.2998 57.35 11.8698 63.17 15.0598 67.4C17.1598 70.18 20.1198 70.86 21.8998 71C21.9498 71 21.9998 71 22.0498 71C20.2598 68.26 15.5798 60.96 17.9198 63.25C20.2098 65.49 22.4898 69.08 23.3198 70.45C23.5498 70.21 23.7198 69.91 23.7898 69.56C24.1198 67.9 24.4398 65.17 23.4398 63.31H23.4498Z" fill="#AFE0DD"/>
<path id="Vector_13" d="M32.3004 59.93C27.4104 60.87 26.0604 66.11 25.6904 69.01C29.4904 62.78 38.3804 62.79 38.3804 62.79C32.1804 64.16 27.4204 69.35 26.2804 70.69C26.5104 70.85 26.8004 70.95 27.1104 70.95H29.2904C29.2904 70.95 34.6304 71.43 38.1604 69.7C41.6904 67.97 43.0804 61.04 43.0804 61.04C43.0804 61.04 39.1304 58.61 32.3004 59.93Z" fill="#AFE0DD"/>
<path id="Vector_14" d="M23.4905 40.21C23.4905 40.21 20.1405 42.43 19.3305 48.49C18.6705 53.47 22.9405 60.36 24.4805 62.65C24.6105 62.85 24.8105 62.99 25.0305 63.1C25.0505 61.95 25.0605 59.73 25.0105 55.8C24.9305 49.2 24.3905 46.96 24.3905 46.96C24.3905 46.96 27.4405 55.17 26.2005 63.16C26.5405 63.04 26.8205 62.8 26.9605 62.49C27.7405 60.72 29.9805 55.27 30.2305 50.31C30.5305 44.29 23.5005 40.2 23.5005 40.2L23.4905 40.21Z" fill="#AFE0DD"/>
</g>
</svg>

<svg xmlns="http://www.w3.org/2000/svg" width="120" height="92" fill="none"><path fill="#fff" d="M101.93 25.04H67.57a4.65 4.65 0 0 0-4.65 4.65v49.79a4.65 4.65 0 0 0 4.65 4.65h34.36a4.65 4.65 0 0 0 4.65-4.65V29.69a4.65 4.65 0 0 0-4.65-4.65"/><path fill="#13706D" d="M101.93 85.13H67.57c-3.11 0-5.65-2.53-5.65-5.65V29.69c0-3.11 2.53-5.65 5.65-5.65h34.36c3.11 0 5.65 2.53 5.65 5.65v49.79c0 3.11-2.53 5.65-5.65 5.65M67.57 26.04c-2.01 0-3.65 1.64-3.65 3.65v49.79c0 2.01 1.64 3.65 3.65 3.65h34.36c2.01 0 3.65-1.64 3.65-3.65V29.69c0-2.01-1.64-3.65-3.65-3.65z"/><path fill="#fff" d="M97.88 25.04H63.52a4.65 4.65 0 0 0-4.65 4.65v49.79a4.65 4.65 0 0 0 4.65 4.65h34.36a4.65 4.65 0 0 0 4.65-4.65V29.69a4.65 4.65 0 0 0-4.65-4.65"/><path fill="#13706D" d="M97.88 85.13H63.52c-3.11 0-5.65-2.53-5.65-5.65V29.69c0-3.11 2.53-5.65 5.65-5.65h34.36c3.11 0 5.65 2.53 5.65 5.65v49.79c0 3.11-2.53 5.65-5.65 5.65M63.52 26.04c-2.01 0-3.65 1.64-3.65 3.65v49.79c0 2.01 1.64 3.65 3.65 3.65h34.36c2.01 0 3.65-1.64 3.65-3.65V29.69c0-2.01-1.64-3.65-3.65-3.65z"/><path fill="#AFE0DD" d="M93.62 25.04H59.26a4.65 4.65 0 0 0-4.65 4.65v49.79a4.65 4.65 0 0 0 4.65 4.65h34.36a4.65 4.65 0 0 0 4.65-4.65V29.69a4.65 4.65 0 0 0-4.65-4.65"/><path fill="#13706D" d="M93.63 85.13H59.27c-3.11 0-5.65-2.53-5.65-5.65V29.69c0-3.11 2.53-5.65 5.65-5.65h34.36c3.11 0 5.65 2.53 5.65 5.65v49.79c0 3.11-2.53 5.65-5.65 5.65M59.26 26.04c-2.01 0-3.65 1.64-3.65 3.65v49.79c0 2.01 1.64 3.65 3.65 3.65h34.36c2.01 0 3.65-1.64 3.65-3.65V29.69c0-2.01-1.64-3.65-3.65-3.65z"/><path fill="#fff" d="M58.76 10.07c.81 2.18 3.52 2.91 5.31 1.42 2.4-2 5.99.08 5.47 3.16-.39 2.29 1.6 4.28 3.88 3.88 3.08-.53 5.15 3.06 3.16 5.47-1.48 1.79-.76 4.5 1.42 5.31 2.93 1.08 2.93 5.23 0 6.31-2.18.81-2.91 3.52-1.42 5.31 2 2.4-.08 5.99-3.16 5.47-2.29-.39-4.28 1.6-3.88 3.88.53 3.08-3.06 5.15-5.47 3.16-1.79-1.48-4.5-.76-5.31 1.42-1.08 2.93-5.23 2.93-6.31 0-.81-2.18-3.52-2.91-5.31-1.42-2.4 2-5.99-.08-5.47-3.16.39-2.29-1.6-4.28-3.88-3.88-3.08.53-5.15-3.06-3.16-5.47 1.48-1.79.76-4.5-1.42-5.31-2.93-1.08-2.93-5.23 0-6.31 2.18-.81 2.91-3.52 1.42-5.31-2-2.4.08-5.99 3.16-5.47 2.29.39 4.28-1.6 3.88-3.88-.53-3.08 3.06-5.15 5.47-3.16 1.79 1.48 4.5.76 5.31-1.42 1.08-2.93 5.23-2.93 6.31 0"/><path fill="#13706D" d="M55.6 58.06a4.32 4.32 0 0 1-4.09-2.85c-.27-.73-.86-1.26-1.61-1.46s-1.52-.03-2.12.46a4.33 4.33 0 0 1-4.97.42 4.33 4.33 0 0 1-2.12-4.52c.13-.77-.11-1.52-.66-2.07s-1.31-.79-2.07-.66c-1.82.32-3.59-.52-4.52-2.12a4.33 4.33 0 0 1 .42-4.97c.5-.6.67-1.37.47-2.12s-.74-1.34-1.46-1.61a4.33 4.33 0 0 1-2.85-4.1 4.32 4.32 0 0 1 2.85-4.09c.73-.27 1.26-.86 1.46-1.61s.03-1.53-.47-2.12a4.31 4.31 0 0 1-.42-4.97 4.33 4.33 0 0 1 4.52-2.12c.76.13 1.52-.11 2.07-.66s.79-1.3.66-2.07c-.31-1.82.52-3.59 2.12-4.52a4.33 4.33 0 0 1 4.97.42c.6.5 1.37.67 2.12.46.75-.2 1.34-.73 1.61-1.46a4.33 4.33 0 0 1 4.09-2.85 4.32 4.32 0 0 1 4.09 2.85c.27.73.86 1.26 1.61 1.46s1.52.03 2.12-.47a4.31 4.31 0 0 1 4.97-.42c1.6.92 2.43 2.7 2.12 4.52-.13.77.11 1.52.66 2.07s1.31.79 2.07.66c1.82-.31 3.59.52 4.52 2.12s.76 3.55-.42 4.97c-.5.6-.67 1.37-.47 2.12s.74 1.34 1.46 1.61a4.33 4.33 0 0 1 2.85 4.09 4.33 4.33 0 0 1-2.85 4.09c-.73.27-1.26.86-1.46 1.61s-.03 1.53.47 2.12a4.31 4.31 0 0 1 .42 4.97 4.33 4.33 0 0 1-4.52 2.12c-.76-.13-1.52.11-2.07.66s-.79 1.3-.66 2.07c.31 1.82-.52 3.59-2.12 4.52-1.6.92-3.55.76-4.97-.42-.6-.5-1.37-.67-2.12-.46-.75.2-1.34.74-1.61 1.46a4.33 4.33 0 0 1-4.09 2.85zm-6.33-6.41c.38 0 .77.05 1.15.15 1.39.37 2.47 1.36 2.96 2.7.42 1.14 1.42 1.55 2.22 1.55s1.8-.41 2.22-1.55c.5-1.35 1.58-2.33 2.97-2.7s2.81-.06 3.92.86c.93.78 2 .63 2.69.23s1.35-1.25 1.15-2.45c-.24-1.41.2-2.81 1.22-3.82a4.3 4.3 0 0 1 3.82-1.22c1.19.2 2.05-.46 2.45-1.15s.55-1.76-.23-2.69a4.31 4.31 0 0 1-.86-3.92 4.29 4.29 0 0 1 2.7-2.96c1.14-.42 1.54-1.42 1.54-2.22s-.41-1.8-1.54-2.22a4.31 4.31 0 0 1-2.7-2.96c-.37-1.39-.06-2.81.86-3.92.78-.93.63-2 .23-2.69s-1.26-1.35-2.45-1.15c-1.42.25-2.81-.2-3.82-1.22s-1.46-2.41-1.22-3.82c.2-1.2-.46-2.05-1.15-2.45s-1.76-.55-2.69.23c-1.1.92-2.53 1.23-3.92.86a4.39 4.39 0 0 1-2.97-2.7c-.42-1.14-1.42-1.54-2.22-1.55-.8 0-1.8.41-2.22 1.55a4.31 4.31 0 0 1-2.96 2.7c-1.39.37-2.82.06-3.92-.86-.93-.78-2-.63-2.69-.23s-1.35 1.25-1.15 2.45c.24 1.41-.2 2.81-1.22 3.82a4.33 4.33 0 0 1-3.82 1.22c-1.19-.2-2.05.46-2.45 1.15s-.55 1.76.23 2.69c.92 1.1 1.23 2.53.86 3.92a4.29 4.29 0 0 1-2.7 2.96c-1.14.42-1.54 1.42-1.54 2.22s.41 1.8 1.54 2.22a4.31 4.31 0 0 1 2.7 2.96c.37 1.39.06 2.81-.86 3.92-.78.93-.63 2-.23 2.69s1.26 1.35 2.45 1.15c1.42-.25 2.81.2 3.82 1.22a4.33 4.33 0 0 1 1.22 3.82c-.2 1.2.46 2.05 1.15 2.45s1.76.55 2.69-.23c.8-.66 1.77-1.01 2.77-1.01"/><path fill="#13706D" d="M61.23 28.24h-3.92l-.39-3.88a2.575 2.575 0 0 0-2.57-2.33c-1.33 0-2.42 1.09-2.42 2.42v.31c0 1.08-.26 2.17-.74 3.14l-.96 1.92a2.1 2.1 0 0 0-1.15-.34H46.6c-1.17 0-2.11.95-2.11 2.11v8.69c0 1.17.95 2.11 2.11 2.11h2.48c.63 0 1.21-.28 1.61-.75.6.48 1.34.75 2.11.75h7.69c1.73 0 3.17-1.3 3.34-3.02l.75-7.45c.01-.11.02-.22.02-.33 0-1.85-1.5-3.36-3.35-3.36zm-7.56-3.48v-.31c0-.38.31-.68.68-.68.44 0 .8.33.84.76l.47 4.66c.04.45.42.79.87.79h4.71c.89 0 1.61.72 1.61 1.61v.16l-.75 7.45a1.6 1.6 0 0 1-1.6 1.45h-7.69c-.89 0-1.61-.72-1.61-1.61v-7.25l1.56-3.12c.61-1.21.93-2.57.93-3.92zm-7.45 6.83c0-.21.17-.37.37-.37h2.48c.2 0 .37.17.37.37v8.69c0 .21-.17.37-.37.37h-2.48c-.2 0-.37-.17-.37-.37z"/><path fill="#AFE0DD" d="M49.08 31.22h-2.49a.37.37 0 0 0-.37.37v8.69c0 .204.165.37.37.37h2.49a.37.37 0 0 0 .37-.37v-8.69a.37.37 0 0 0-.37-.37M27.73 84.13h-4.18c-2.37 0-4.28-1.92-4.28-4.28v-6.54c0-.72.58-1.31 1.31-1.31h10.14c.72 0 1.31.58 1.31 1.31v6.54c0 2.37-1.92 4.28-4.28 4.28zm-4.28-20.82c-1.52-2.84-4.99-5.48-9.15-5.96 0 0-2.43 5.82.76 10.05 2.1 2.78 5.06 3.46 6.84 3.6h.15c-1.79-2.74-6.47-10.04-4.13-7.75 2.29 2.24 4.57 5.83 5.4 7.2.23-.24.4-.54.47-.89.33-1.66.65-4.39-.35-6.25zm8.85-3.38c-4.89.94-6.24 6.18-6.61 9.08 3.8-6.23 12.69-6.22 12.69-6.22-6.2 1.37-10.96 6.56-12.1 7.9.23.16.52.26.83.26h2.18s5.34.48 8.87-1.25 4.92-8.66 4.92-8.66-3.95-2.43-10.78-1.11m-8.81-19.72s-3.35 2.22-4.16 8.28c-.66 4.98 3.61 11.87 5.15 14.16.13.2.33.34.55.45.02-1.15.03-3.37-.02-7.3-.08-6.6-.62-8.84-.62-8.84s3.05 8.21 1.81 16.2c.34-.12.62-.36.76-.67.78-1.77 3.02-7.22 3.27-12.18.3-6.02-6.73-10.11-6.73-10.11z"/></svg>
